X: 21052
T: DAINTY DAVIE
O: Scottish air.
Q: "Lively dancing tune."
%R: air, strathspey
B: W. Hamilton "Universal Tune-Book" Vol. 2 Glasgow 1846 p.105 #2
S: http://s3-eu-west-1.amazonaws.com/itma.dl.printmaterial/book_pdfs/hamiltonvol2web.pdf
Z: 2016 John Chambers <jc:trillian.mit.edu>
M: C
L: 1/16
K: F
% - - - - - - - - - - - - - - - - - - - - - - - - -
fd |\
c3BA3G FD3 F4 | F2c2 ABcA .F2.c2.A2.f2 |\
c3BA3G FD3 F4 | f3g agfe d4 f2 :| c2 |\
f2a2f2a2 f2a2 a2(gf) | e2g2c2g2 e2g2 g2fe |
f2a2f2a2 f2a2 a2gf | e2c2 {a}g2(fe) d4 f2c2 |\
f2a2f2a2 f2a2 a2gf | e2g2c2g2 e2g2 {a}g2fe |\
f3g a2ga bagf fedc | defg agfe d3ef2 |]
% - - - - - - - - - - - - - - - - - - - - - - - - -

%%sep 1 1 500
%%sep 1 1 500

